src/standard/insurance.svg

<svg xmlns="http://www.w3.org/2000/svg" viewBox="0 0 36 36">
  <path d="M27 7.38h-4c-.9 0-.57 1.24-.62 1.8h-8.76c0-.54.28-1.79-.62-1.8H9a.61.61 0 0 0-.62.62v23a.61.61 0 0 0 .62.62h18a.61.61 0 0 0 .62-.62V8a.61.61 0 0 0-.62-.62Zm-.62 23H9.62V8.62h2.76c0 .56-.28 1.79.62 1.81h10c.9 0 .57-1.25.62-1.81h2.76ZM12 6.62h3c.31 0 .65-.07.76-.41a2.37 2.37 0 0 1 4.48 0 .68.68 0 0 0 .76.41h3a.62.62 0 0 0 0-1.24h-2.77a3.63 3.63 0 0 0-6.46 0H12a.62.62 0 0 0 0 1.24Z"/>
  <path d="m22.13 15.51-4-.85a.57.57 0 0 0-.26 0l-4 .85a.62.62 0 0 0-.49.61v4.61c.19 6.11 9 6.11 9.25 0v-4.61a.62.62 0 0 0-.5-.61Zm-4.13.4 3.38.72v.16l-6.76 3.52v-3.68Zm0 8.19a3.36 3.36 0 0 1-3.23-2.45l6.61-3.45v2.53A3.38 3.38 0 0 1 18 24.1ZM17.38 6a.63.63 0 1 0 .62-.63.62.62 0 0 0-.62.63Z"/>
</svg>

<svg id="ee2f6948-13f0-4cbf-b420-54184aecadf6" data-name="Icon" xmlns="http://www.w3.org/2000/svg" viewBox="0 0 36 36">
  <title>Insurance icon - Black</title>
<desc>security, safeguard, service, assurance, warranty, buildings and industries</desc>
<metadata><?xpacket begin="﻿" id="W5M0MpCehiHzreSzNTczkc9d"?>
<x:xmpmeta xmlns:x="adobe:ns:meta/" x:xmptk="Adobe XMP Core 8.0-c001 1.000000, 0000/00/00-00:00:00        ">
   <rdf:RDF xmlns:rdf="http://www.w3.org/1999/02/22-rdf-syntax-ns#">
      <rdf:Description rdf:about=""
            xmlns:xmp="http://ns.adobe.com/xap/1.0/"
            xmlns:dc="http://purl.org/dc/elements/1.1/"
            xmlns:cq="http://www.day.com/jcr/cq/1.0"
            xmlns:tiff="http://ns.adobe.com/tiff/1.0/">
         <xmp:rhcc-effective-on>2023-12-08T17:47:32.686Z</xmp:rhcc-effective-on>
         <xmp:rhcc-metadata-complete-moderator>pending</xmp:rhcc-metadata-complete-moderator>
         <xmp:rhcc-translation-id>TRAea686a47-390e-49d8-bdb2-4bdd6394e5cc</xmp:rhcc-translation-id>
         <xmp:brand-content-type>Icon</xmp:brand-content-type>
         <xmp:CreateDate>2023-12-08T17:47:32.686Z</xmp:CreateDate>
         <xmp:rhcc-effective-on-set-on-upload>true</xmp:rhcc-effective-on-set-on-upload>
         <xmp:rhcc-metadata-complete-uploader>pending</xmp:rhcc-metadata-complete-uploader>
         <xmp:rhcc-file-last-modified>2023-12-08T17:48:03.551Z</xmp:rhcc-file-last-modified>
         <xmp:rhcc-audience>rhcc-audience:internal</xmp:rhcc-audience>
         <xmp:rhcc-rights-restricted>no</xmp:rhcc-rights-restricted>
         <xmp:brand-content-subtype>Icon</xmp:brand-content-subtype>
         <xmp:rhcc-derivative-id>DERea686a47-390e-49d8-bdb2-4bdd6394e5cc</xmp:rhcc-derivative-id>
         <xmp:brand-logo-color>Black</xmp:brand-logo-color>
         <xmp:rhcc-notify-portal-subscribers-on-change>yes</xmp:rhcc-notify-portal-subscribers-on-change>
         <dc:format>image/svg+xml</dc:format>
         <dc:modified>2024-02-09T20:24:15.939Z</dc:modified>
         <dc:title>
            <rdf:Alt>
               <rdf:li xml:lang="x-default">Insurance icon - Black</rdf:li>
            </rdf:Alt>
         </dc:title>
         <dc:description>
            <rdf:Alt>
               <rdf:li xml:lang="x-default">security, safeguard, service, assurance, warranty, buildings and industries</rdf:li>
            </rdf:Alt>
         </dc:description>
         <cq:lastReplicationAction_scene7>Activate</cq:lastReplicationAction_scene7>
         <cq:lastReplicationAction_publish>Activate</cq:lastReplicationAction_publish>
         <cq:lastReplicated_publish>2024-02-09T22:06:34.562Z</cq:lastReplicated_publish>
         <cq:lastReplicatedBy>workflow-process-service</cq:lastReplicatedBy>
         <cq:lastReplicationAction>Activate</cq:lastReplicationAction>
         <cq:lastReplicatedBy_publish>workflow-process-service</cq:lastReplicatedBy_publish>
         <cq:isDelivered>true</cq:isDelivered>
         <cq:lastReplicated>2024-02-09T22:06:34.562Z</cq:lastReplicated>
         <cq:lastReplicatedBy_scene7>workflow-process-service</cq:lastReplicatedBy_scene7>
         <cq:lastReplicated_scene7>2024-02-09T22:06:34.562Z</cq:lastReplicated_scene7>
         <tiff:ImageLength>36</tiff:ImageLength>
         <tiff:ImageWidth>36</tiff:ImageWidth>
      </rdf:Description>
   </rdf:RDF>
</x:xmpmeta>
                                                                                                    
                                                                                                    
                                                                                                    
                                                                                                    
                                                                                                    
                                                                                                    
                                                                                                    
                                                                                                    
                                                                                                    
                                                                                                    
                                 
<?xpacket end="w"?></metadata>
<g>
    <path d="M27,7.38H23c-.9,0-.57,1.24-.62,1.8H13.62c0-.54.28-1.79-.62-1.8H9A.61.61,0,0,0,8.38,8V31a.61.61,0,0,0,.62.62H27a.61.61,0,0,0,.62-.62V8A.61.61,0,0,0,27,7.38Zm-.62,23H9.62V8.62h2.76c0,.56-.28,1.79.62,1.81H23c.9,0,.57-1.25.62-1.81h2.76Z"/>
    <path d="M12,6.62h3c.31,0,.65-.07.76-.41a2.37,2.37,0,0,1,4.48,0,.68.68,0,0,0,.76.41h3a.62.62,0,0,0,0-1.24H21.23a3.63,3.63,0,0,0-6.46,0H12A.62.62,0,0,0,12,6.62Z"/>
    <path d="M22.13,15.51l-4-.85a.57.57,0,0,0-.26,0l-4,.85a.62.62,0,0,0-.49.61v4.61c.19,6.11,9,6.11,9.25,0V16.12A.62.62,0,0,0,22.13,15.51Zm-4.13.4,3.38.72v.16l-6.76,3.52V16.63Zm0,8.19a3.36,3.36,0,0,1-3.23-2.45l6.61-3.45v2.53A3.38,3.38,0,0,1,18,24.1Z"/>
    <path d="M17.38,6A.63.63,0,1,0,18,5.37.62.62,0,0,0,17.38,6Z"/>
  </g>
</svg>
